!!!id: EG049
!!!page: 36-38
!!!COM: Anonymous
!!!LYR: Anonymous
!!!PTL@@FR: Chansons Populaires du Canada
!!!OTL@@FR: Isabeau s'y promène
!!!PUB: G. E. Desbarats
!!!YEM:
!!!PDT: 1865
!!!SMA:
!!!OMD:
!!!AGN-Laforte:
!!!AGN-type:
!!!AGN-rime:
**kern
*clefG2
*k[b-,e-]
*g:
*M3/8
*
*
8d
=1
4.g
=2
8b-
8a\
8b-
=3
4.b-
=4
4a
8r
=5
8f
8a
8b-/
!!LO:PB:g=original
=6
4g
8f#
=7
(4.g
=8
8g)
8r
=:|
8r
=9
8g
8g
8g
=10
4dd
8dd
!!LO:PB:g=original
=11
8dd
8b-
8g
=12
4cc
8cc
=13
(4cc
8b-)
=14
4a
8r
=15
8g
8g
8g
!!LO:PB:g=original
=16
4dd
8dd
=17
8dd
8b-
8g
=18
4cc
8a
=19
8f
8a
8cc
=20
8ccq
8b-/
8a
8b-/
!!LO:PB:g=original
=21
(4.g
=22
4g)
==||
8r
==||
*
*
==|
*-
